icons/editor-image-indent-right-filled.svg

<svg width="25" height="24" viewBox="0 0 25 24" fill="none" xmlns="http://www.w3.org/2000/svg">
<g id="image-indent-right">
<path id="Icon" d="M22.0996 19.2002L2.89961 19.2002M11.2996 14.0002L2.89961 14.0002M11.2996 8.80019L2.89961 8.80019M22.0996 3.6002L2.89961 3.60019M20.8996 8.40019L17.2996 8.40019C16.6369 8.40019 16.0996 8.93745 16.0996 9.60019L16.0996 13.2002C16.0996 13.8629 16.6369 14.4002 17.2996 14.4002L20.8996 14.4002C21.5624 14.4002 22.0996 13.8629 22.0996 13.2002L22.0996 9.60019C22.0996 8.93745 21.5624 8.40019 20.8996 8.40019Z" stroke="black" stroke-width="2" stroke-linecap="round" stroke-linejoin="round"/>
</g>
</svg>

<svg xmlns="http://www.w3.org/2000/svg" width="25" height="24" fill="none" viewBox="0 0 25 24"><path stroke="currentColor" stroke-linecap="round" stroke-linejoin="round" stroke-width="2" d="M22.1 19.2H2.9m8.4-5.2H2.9m8.4-5.2H2.9m19.2-5.2H2.9m18 4.8h-3.6a1.2 1.2 0 0 0-1.2 1.2v3.6a1.2 1.2 0 0 0 1.2 1.2h3.6a1.2 1.2 0 0 0 1.2-1.2V9.6a1.2 1.2 0 0 0-1.2-1.2"/></svg>
